X: 1157
T: Isfahân Aranağme (Aksak)
C: ?
O: Turkey
F: http://compmusic.upf.edu/node/140
N: isfahan--aranagme--aksak--1--
N: makam= isfahan
N: form= aranagme
N: usul= aksak = 9/8
M: 9/8
L: 1/16
K: C _2/4B   
Q: 1/4=168
%%MIDI tuningsystem comma53
^c=BA2 d=c_1/4B2 ^cdec d4 z2 | d3/2^c/ de^fg agf^3/4e def4a2  | 
w:  ARANAĞME  |   | 
agg^2/4f =feed d3/2c/de cdcB AG | \
w:   | 
AB2Agf/e/ d2cB BAA4z2  | 
w:   | 
^c=BA2 d=c_1/4B2 ^cdec d4 z2 | d3/2^c/ de^fg agf^3/4e def4a2  | 
w:  ARANAĞME  |   | 
agg^2/4f =feed d3/2c/de cdcB AG | \
w:   | 
AB2Agf/e/ d2cB BAA4z2  | 
w:   | 
|


